X: 157
T: Scotch Cap
M:6/8
L:1/8
Q:160
S:Playford
O:Manuscript
A:English
K:F
D2 D d2 d|e2 d c2 A|=B2 e B2 G|=B3 d3:|
|:d/2e/2|f2 A A2 d/2e/2|f2 A A2 d/2 e/2| f2 A A2 F|A3 d3|=B2 B A2 F|G2 G d2 d|=B2 B A D2|E3 D3:|

